cached_logos/notary.svg

<svg viewBox="-5.44 -4.44 264.88 438.88" xmlns="http://www.w3.org/2000/svg"><title>Notary</title><path d="M19.6 413.1V382h15.6v31.1h15.6v13.1H4v-13.1h15.6zm143.6-8v-8h-23.6v8h23.6zm8 1.5v6.5H132v-23.6h31.6v-8h8v25.1h-.4zm72.8 11.5v-5h-31.1V374h8v31.1h23.6V374h7.5v52.2H56.2v-8H244zm-135.6-44.2v-13.1h8v13.1h54.7v8H116V413h-8v-31h-8v-8h8.4zM4 360.9h47.2V374H4v-13.1zm52.2 13h8v39.2h-8v-39.2zm31.2 0h8v39.2h-8v-39.2zm-23.6 31.2h23.6v8H63.8v-8zm0-31.2h23.6v8H63.8v-8zm52.2 31.2h8v8h-8v-8zm60.2-31.2h31.1v8h-31.1v-8zm0 7.6h8v31.1h-8v-31.1zM4 373.9h8v39.2H4v-39.2zm39.2 0h8v39.2h-8v-39.2zm42.7-94.8V113.9h82.8v165.2H251v68.7H3.5v-68.7zM3.5 4H251v68.8H3.5z"/><path d="M3.5 72.8h41.2v206.3H3.5zm206.3 0H251v206.3h-41.2z"/></svg>

<?xml version="1.0" encoding="utf-8"?>
<!-- Generator: Adobe Illustrator 21.1.0, SVG Export Plug-In . SVG Version: 6.00 Build 0)  -->
<svg version="1.1" id="Layer_1" xmlns="http://www.w3.org/2000/svg" xmlns:xlink="http://www.w3.org/1999/xlink" x="0px" y="0px"
	 viewBox="-1.6799999999999784 -4.4599999999999795 258.96000000000004 439.92" style="enable-background:new 0 0 255.7 432;" xml:space="preserve">
<g id="Artboard" transform="translate(-367.000000, -109.000000)">
	<g id="notary-blk" transform="translate(367.000000, 109.000000)">
		<path id="Combined-Shape" d="M19.6,413.1V382h15.6v31.1h15.6v13.1H4v-13.1H19.6z M163.2,405.1v-8h-23.6v8H163.2z M171.2,406.6v6.5
			H132v-6.5v-17.1h4h27.6v-8h8v25.1H171.2z M244,418.1v-5h-31.1v-4v-35.1h8v31.1h23.6v-31.1h7.5v52.2h-6.5H56.2v-8H244z
			 M108.4,373.9v-13.1h8v13.1h54.7v8H116v31.1h-8V382h-8v-8H108.4z M4,360.9h47.2v13.1H4V360.9z M56.2,373.9h8v39.2h-8V373.9z
			 M87.4,373.9h8v39.2h-8V373.9z M63.8,405.1h23.6v8H63.8C63.8,413.1,63.8,405.1,63.8,405.1z M63.8,373.9h23.6v8H63.8
			C63.8,382,63.8,373.9,63.8,373.9z M116,405.1h8v8h-8V405.1z M176.2,373.9h31.1v8h-31.1V373.9z M176.2,381.5h8v31.1h-8V381.5z
			 M4,373.9h8v39.2H4V373.9z M43.2,373.9h8v39.2h-8V373.9z"/>
	</g>
</g>
<polygon points="85.9,279.1 85.9,113.9 168.7,113.9 168.7,279.1 251,279.1 251,347.8 3.5,347.8 3.5,279.1 "/>
<rect x="3.5" y="4" width="247.5" height="68.8"/>
<rect x="3.5" y="72.8" width="41.2" height="206.3"/>
<rect x="209.8" y="72.8" width="41.2" height="206.3"/>
</svg>
